X: 1
T:Jig (Welch Family) 87 STB
M:6/8
L:1/8
K:G
D|G2G GFG|d2c A2c|BdG GFG|
A2F D2D|G2G GFG|d2c A2c|BdG AGF|
G2G G2:|
|D|D3DEF|G2G GFG|
A2A AGA|B2G GFE|D3DEF|G2B d3|
cBA GFE|D2D D2:|
